X:56
T:Love Will You Marry Me?
T:Love Won't You Marry Me?
R:song
H:Also fling#2
D:De Danann: Selected Jigs, Reels and Songs
Z:id:hn-song-56
M:C|
K:D
A,2A,B, DEFE | DB,B,2 DB,B,2 | A,2A,B, DEFG | ABAF E2D2 :|
|: A2 (3AAG FGA2 | B2 (3BBA GAB2 | A2 (3AAG FGAF | DEFD E2D2 :|
P:verse 2
|: A,2A,B, DEFE | DB,B,2 DB,B,2 | A,2A,B, DEFG | ABAF E2D2 :|
A2 (3AAG FGA2 | B2 (3BBA GAB2 | A2 (3AAG FGA2 | (3DDE FD E2D2 |
A2AG FGA2 | B2BA GABG | ABdA BdAF | DE (3FFD E2D2 :|
W:Love will you marry me, marry me, marry me,
W:love will you marry me, and take me out of danger?
W:No I won't marry you, marry you, marry you,
W:no I won't marry you, for why you are a stranger.
W:Why didn't you tell me so, why didn't you tell me so,
W:why didn't you tell me so, before you did the harm?
W:What harm did I do, what harm did I do,
W:what harm did I do, but roll you in my arms?
W:
W:Love will you marry me, marry me, marry me,
W:love will you marry me, and take me out of danger?
W:No I won't marry you, marry you, marry you,
W:no I won't marry you, for why you are a stranger.
W:Why didn't you tell me so, why didn't you tell me so,
W:why didn't you tell me so, what in the world delayed you?
W:How could I tell you so, how could I tell you so,
W:for if I would have told you then I surely couldn't have gained you.
W:
W:Who'll mend my socks and shirts, my socks and shirts, my socks and shirts,
W:Who'll mend my socks and shirts and feed me in the morning?
W:I won't mend your socks nor shirts, your socks nor shirts, your socks nor shirts,
W:I won't mend your socks nor shirts nor feed you in the morning.
W:Why didn't you tell me that, tell me that, tell me that,
W:Why didn't you tell me that before I sold the farm.
W:I didn't tell you that, tell you that, tell you that,
W:I didn't tell you that for fear you'd do me harm.
W:
W:What on earth will happen me, happen me, happen me,
W:What on earth will happen me, I thought you were my darlin'.
W:Who cares what happens ya, happens ya, happens ya,
W:Who cares what happens ya, you never were my darlin'.

